contributed-vectors/polarr.svg

<?xml version="1.0" encoding="UTF-8" standalone="no"?>
<svg
   xmlns:dc="http://purl.org/dc/elements/1.1/"
   xmlns:cc="http://creativecommons.org/ns#"
   xmlns:rdf="http://www.w3.org/1999/02/22-rdf-syntax-ns#"
   xmlns:svg="http://www.w3.org/2000/svg"
   xmlns="http://www.w3.org/2000/svg"
   xmlns:sodipodi="http://sodipodi.sourceforge.net/DTD/sodipodi-0.dtd"
   xmlns:inkscape="http://www.inkscape.org/namespaces/inkscape"
   sodipodi:docname="polarr.svg"
   inkscape:version="1.0.1 (3bc2e813f5, 2020-09-07)"
   version="1.1"
   id="svg2"
   viewBox="0 0 192 192"
   height="192"
   width="192"
   inkscape:export-filename="/home/jphilippe/inkscape/icônes/delta-github/png/polarr.png"
   inkscape:export-xdpi="96"
   inkscape:export-ydpi="96">
  <sodipodi:namedview
     inkscape:document-rotation="0"
     inkscape:window-maximized="1"
     inkscape:window-y="30"
     inkscape:window-x="1920"
     inkscape:window-height="1022"
     inkscape:window-width="1680"
     units="px"
     showgrid="false"
     inkscape:current-layer="layer1"
     inkscape:document-units="px"
     inkscape:cy="-247.81329"
     inkscape:cx="-439.43624"
     inkscape:zoom="0.25000001"
     inkscape:pageshadow="2"
     inkscape:pageopacity="0.0"
     borderopacity="1.0"
     bordercolor="#666666"
     pagecolor="#ffffff"
     id="base"
     inkscape:snap-bbox="false"
     inkscape:object-paths="true"
     inkscape:snap-nodes="true"
     showguides="true"
     inkscape:guide-bbox="true"
     inkscape:snap-object-midpoints="true"
     inkscape:snap-center="true"
     inkscape:snap-global="false"
     inkscape:snap-intersection-paths="true"
     inkscape:snap-smooth-nodes="true"
     inkscape:snap-midpoints="true" />
  <defs
     id="defs4" />
  <metadata
     id="metadata7">
    <rdf:RDF>
      <cc:Work
         rdf:about="">
        <dc:format>image/svg+xml</dc:format>
        <dc:type
           rdf:resource="http://purl.org/dc/dcmitype/StillImage" />
        <dc:title></dc:title>
      </cc:Work>
    </rdf:RDF>
  </metadata>
  <g
     transform="translate(0,-860.36216)"
     id="layer1"
     inkscape:groupmode="layer"
     inkscape:label="Calque 1">
    <circle
       style="fill:#545859;fill-opacity:1;fill-rule:evenodd;stroke:none;stroke-opacity:1"
       cx="96"
       cy="956.36218"
       r="88"
       id="circle919-3" />
    <g
       id="g1035"
       transform="matrix(0.54639705,0,0,0.54639705,46.551067,433.80861)">
      <circle
         style="opacity:1;fill:none;stroke:#fe827c;stroke-width:10;stroke-linecap:round;stroke-linejoin:round;stroke-opacity:1;stop-color:#000000"
         id="path921-6"
         cx="87"
         cy="956.36218"
         r="58.301239" />
      <circle
         style="opacity:1;fill:none;stroke:#95ded2;stroke-width:10;stroke-linecap:round;stroke-linejoin:round;stroke-opacity:1;stop-color:#000000"
         id="circle923-7"
         cx="94"
         cy="956.36218"
         r="58.301239" />
      <path
         style="color:#000000;font-style:normal;font-variant:normal;font-weight:normal;font-stretch:normal;font-size:medium;line-height:normal;font-family:sans-serif;font-variant-ligatures:normal;font-variant-position:normal;font-variant-caps:normal;font-variant-numeric:normal;font-variant-alternates:normal;font-variant-east-asian:normal;font-feature-settings:normal;font-variation-settings:normal;text-indent:0;text-align:start;text-decoration:none;text-decoration-line:none;text-decoration-style:solid;text-decoration-color:#000000;letter-spacing:normal;word-spacing:normal;text-transform:none;writing-mode:lr-tb;direction:ltr;text-orientation:mixed;dominant-baseline:auto;baseline-shift:baseline;text-anchor:start;white-space:normal;shape-padding:0;shape-margin:0;inline-size:0;clip-rule:nonzero;display:inline;overflow:visible;visibility:visible;opacity:1;isolation:auto;mix-blend-mode:normal;color-interpolation:sRGB;color-interpolation-filters:linearRGB;solid-color:#000000;solid-opacity:1;vector-effect:none;fill:#fe827c;fill-opacity:1;fill-rule:nonzero;stroke:none;stroke-width:10;stroke-linecap:round;stroke-linejoin:round;stroke-miterlimit:4;stroke-dasharray:none;stroke-dashoffset:0;stroke-opacity:1;color-rendering:auto;image-rendering:auto;shape-rendering:auto;text-rendering:auto;enable-background:accumulate;stop-color:#000000;stop-opacity:1"
         d="m 87,893.06055 c -34.901086,0 -63.300782,28.39969 -63.300781,63.30078 1.1e-5,34.90108 28.399703,63.30277 63.300781,63.30277 34.90108,0 63.30077,-28.40169 63.30078,-63.30277 0,-34.90109 -28.39969,-63.30078 -63.30078,-63.30078 z m 0,10 c 29.49669,0 53.30078,23.80409 53.30078,53.30078 -1e-5,29.49668 -23.8041,53.30277 -53.30078,53.30277 -29.496678,0 -53.300772,-23.80609 -53.300781,-53.30277 C 33.699218,926.86464 57.503315,903.06055 87,903.06055 Z"
         id="path1016-5" />
      <path
         style="color:#000000;font-style:normal;font-variant:normal;font-weight:normal;font-stretch:normal;font-size:medium;line-height:normal;font-family:sans-serif;font-variant-ligatures:normal;font-variant-position:normal;font-variant-caps:normal;font-variant-numeric:normal;font-variant-alternates:normal;font-variant-east-asian:normal;font-feature-settings:normal;font-variation-settings:normal;text-indent:0;text-align:start;text-decoration:none;text-decoration-line:none;text-decoration-style:solid;text-decoration-color:#000000;letter-spacing:normal;word-spacing:normal;text-transform:none;writing-mode:lr-tb;direction:ltr;text-orientation:mixed;dominant-baseline:auto;baseline-shift:baseline;text-anchor:start;white-space:normal;shape-padding:0;shape-margin:0;inline-size:0;clip-rule:nonzero;display:inline;overflow:visible;visibility:visible;opacity:1;isolation:auto;mix-blend-mode:normal;color-interpolation:sRGB;color-interpolation-filters:linearRGB;solid-color:#000000;solid-opacity:1;vector-effect:none;fill:#95ded2;fill-opacity:1;fill-rule:nonzero;stroke:none;stroke-width:10;stroke-linecap:round;stroke-linejoin:round;stroke-miterlimit:4;stroke-dasharray:none;stroke-dashoffset:0;stroke-opacity:1;color-rendering:auto;image-rendering:auto;shape-rendering:auto;text-rendering:auto;enable-background:accumulate;stop-color:#000000;stop-opacity:1"
         d="m 94,893.06055 c -34.901086,0 -63.300782,28.39969 -63.300781,63.30078 1.1e-5,34.90108 28.399703,63.30277 63.300781,63.30277 34.90108,0 63.30077,-28.40169 63.30078,-63.30277 0,-34.90109 -28.39969,-63.30078 -63.30078,-63.30078 z m 0,10 c 29.49669,0 53.30078,23.80409 53.30078,53.30078 -1e-5,29.49668 -23.8041,53.30277 -53.30078,53.30277 -29.496678,0 -53.300772,-23.80609 -53.300781,-53.30277 C 40.699218,926.86464 64.503315,903.06055 94,903.06055 Z"
         id="path1021-3" />
      <path
         id="path1023"
         style="color:#000000;font-style:normal;font-variant:normal;font-weight:normal;font-stretch:normal;font-size:medium;line-height:normal;font-family:sans-serif;font-variant-ligatures:normal;font-variant-position:normal;font-variant-caps:normal;font-variant-numeric:normal;font-variant-alternates:normal;font-variant-east-asian:normal;font-feature-settings:normal;font-variation-settings:normal;text-indent:0;text-align:start;text-decoration:none;text-decoration-line:none;text-decoration-style:solid;text-decoration-color:#000000;letter-spacing:normal;word-spacing:normal;text-transform:none;writing-mode:lr-tb;direction:ltr;text-orientation:mixed;dominant-baseline:auto;baseline-shift:baseline;text-anchor:start;white-space:normal;shape-padding:0;shape-margin:0;inline-size:0;clip-rule:nonzero;display:inline;overflow:visible;visibility:visible;opacity:1;isolation:auto;mix-blend-mode:normal;color-interpolation:sRGB;color-interpolation-filters:linearRGB;solid-color:#000000;solid-opacity:1;vector-effect:none;fill:#ffffea;fill-opacity:1;fill-rule:nonzero;stroke:none;stroke-width:10;stroke-linecap:round;stroke-linejoin:round;stroke-miterlimit:4;stroke-dasharray:none;stroke-dashoffset:0;stroke-opacity:1;color-rendering:auto;image-rendering:auto;shape-rendering:auto;text-rendering:auto;enable-background:accumulate;stop-color:#000000;stop-opacity:1"
         d="M 90.5,32.800781 C 57.220823,34.624555 30.699218,62.27384 30.699219,96 30.699229,129.72615 57.220831,157.37532 90.5,159.19922 123.77917,157.37532 150.30077,129.72615 150.30078,96 150.30078,62.27384 123.77918,34.624555 90.5,32.800781 Z M 87,42.699219 c 1.177444,0 2.34185,0.05029 3.5,0.125 1.15815,-0.07471 2.322556,-0.125 3.5,-0.125 29.49669,0 53.30078,23.804091 53.30078,53.300781 -1e-5,29.49668 -23.8041,53.30273 -53.30078,53.30273 -1.177444,0 -2.34185,-0.0522 -3.5,-0.12695 -1.15815,0.0747 -2.322556,0.12695 -3.5,0.12695 C 57.503322,149.30273 33.699228,125.49668 33.699219,96 33.699218,66.50331 57.503315,42.699219 87,42.699219 Z"
         transform="translate(0,860.36216)" />
    </g>
  </g>
  <style
     type="text/css"
     id="style853">
	.st0{fill:#FFFFFF;}
</style>
</svg>

<svg xmlns="http://www.w3.org/2000/svg" id="svg2" width="192" height="192" version="1.1"><g id="layer1" transform="translate(0 -860.362)"><circle id="circle919-3" cx="96" cy="956.362" r="88" style="fill:#545859;fill-opacity:1;fill-rule:evenodd;stroke:none;stroke-opacity:1"/><g id="g1035" transform="matrix(.5464 0 0 .5464 46.551 433.809)"><circle id="path921-6" cx="87" cy="956.362" r="58.301" style="opacity:1;fill:none;stroke:#fe827c;stroke-width:10;stroke-linecap:round;stroke-linejoin:round;stroke-opacity:1;stop-color:#000"/><circle id="circle923-7" cx="94" cy="956.362" r="58.301" style="opacity:1;fill:none;stroke:#95ded2;stroke-width:10;stroke-linecap:round;stroke-linejoin:round;stroke-opacity:1;stop-color:#000"/><path id="path1016-5" d="M87 893.06c-34.901 0-63.3 28.4-63.3 63.301s28.399 63.303 63.3 63.303c34.901 0 63.3-28.402 63.3-63.303 0-34.9-28.399-63.3-63.3-63.3zm0 10c29.497 0 53.3 23.805 53.3 53.301 0 29.497-23.803 53.303-53.3 53.303-29.497 0-53.3-23.806-53.3-53.303 0-29.496 23.803-53.3 53.3-53.3Z" style="color:#000;font-style:normal;font-variant:normal;font-weight:400;font-stretch:normal;font-size:medium;line-height:normal;font-family:sans-serif;font-variant-ligatures:normal;font-variant-position:normal;font-variant-caps:normal;font-variant-numeric:normal;font-variant-alternates:normal;font-variant-east-asian:normal;font-feature-settings:normal;font-variation-settings:normal;text-indent:0;text-align:start;text-decoration:none;text-decoration-line:none;text-decoration-style:solid;text-decoration-color:#000;letter-spacing:normal;word-spacing:normal;text-transform:none;writing-mode:lr-tb;direction:ltr;text-orientation:mixed;dominant-baseline:auto;baseline-shift:baseline;text-anchor:start;white-space:normal;shape-padding:0;shape-margin:0;inline-size:0;clip-rule:nonzero;display:inline;overflow:visible;visibility:visible;opacity:1;isolation:auto;mix-blend-mode:normal;color-interpolation:sRGB;color-interpolation-filters:linearRGB;solid-color:#000;solid-opacity:1;vector-effect:none;fill:#fe827c;fill-opacity:1;fill-rule:nonzero;stroke:none;stroke-width:10;stroke-linecap:round;stroke-linejoin:round;stroke-miterlimit:4;stroke-dasharray:none;stroke-dashoffset:0;stroke-opacity:1;color-rendering:auto;image-rendering:auto;shape-rendering:auto;text-rendering:auto;enable-background:accumulate;stop-color:#000;stop-opacity:1"/><path id="path1021-3" d="M94 893.06c-34.901 0-63.3 28.4-63.3 63.301s28.399 63.303 63.3 63.303c34.901 0 63.3-28.402 63.3-63.303 0-34.9-28.399-63.3-63.3-63.3zm0 10c29.497 0 53.3 23.805 53.3 53.301 0 29.497-23.803 53.303-53.3 53.303-29.497 0-53.3-23.806-53.3-53.303 0-29.496 23.803-53.3 53.3-53.3Z" style="color:#000;font-style:normal;font-variant:normal;font-weight:400;font-stretch:normal;font-size:medium;line-height:normal;font-family:sans-serif;font-variant-ligatures:normal;font-variant-position:normal;font-variant-caps:normal;font-variant-numeric:normal;font-variant-alternates:normal;font-variant-east-asian:normal;font-feature-settings:normal;font-variation-settings:normal;text-indent:0;text-align:start;text-decoration:none;text-decoration-line:none;text-decoration-style:solid;text-decoration-color:#000;letter-spacing:normal;word-spacing:normal;text-transform:none;writing-mode:lr-tb;direction:ltr;text-orientation:mixed;dominant-baseline:auto;baseline-shift:baseline;text-anchor:start;white-space:normal;shape-padding:0;shape-margin:0;inline-size:0;clip-rule:nonzero;display:inline;overflow:visible;visibility:visible;opacity:1;isolation:auto;mix-blend-mode:normal;color-interpolation:sRGB;color-interpolation-filters:linearRGB;solid-color:#000;solid-opacity:1;vector-effect:none;fill:#95ded2;fill-opacity:1;fill-rule:nonzero;stroke:none;stroke-width:10;stroke-linecap:round;stroke-linejoin:round;stroke-miterlimit:4;stroke-dasharray:none;stroke-dashoffset:0;stroke-opacity:1;color-rendering:auto;image-rendering:auto;shape-rendering:auto;text-rendering:auto;enable-background:accumulate;stop-color:#000;stop-opacity:1"/><path id="path1023" d="M90.5 32.8C57.22 34.626 30.7 62.275 30.7 96s26.52 61.375 59.8 63.2c33.28-1.825 59.8-29.474 59.8-63.2s-26.52-61.375-59.8-63.2ZM87 42.7c1.177 0 2.342.05 3.5.124A54.273 54.273 0 0 1 94 42.7c29.497 0 53.3 23.804 53.3 53.301 0 29.497-23.803 53.303-53.3 53.303a54.24 54.24 0 0 1-3.5-.127 54.276 54.276 0 0 1-3.5.127c-29.497 0-53.3-23.806-53.3-53.303 0-29.497 23.803-53.3 53.3-53.3Z" style="color:#000;font-style:normal;font-variant:normal;font-weight:400;font-stretch:normal;font-size:medium;line-height:normal;font-family:sans-serif;font-variant-ligatures:normal;font-variant-position:normal;font-variant-caps:normal;font-variant-numeric:normal;font-variant-alternates:normal;font-variant-east-asian:normal;font-feature-settings:normal;font-variation-settings:normal;text-indent:0;text-align:start;text-decoration:none;text-decoration-line:none;text-decoration-style:solid;text-decoration-color:#000;letter-spacing:normal;word-spacing:normal;text-transform:none;writing-mode:lr-tb;direction:ltr;text-orientation:mixed;dominant-baseline:auto;baseline-shift:baseline;text-anchor:start;white-space:normal;shape-padding:0;shape-margin:0;inline-size:0;clip-rule:nonzero;display:inline;overflow:visible;visibility:visible;opacity:1;isolation:auto;mix-blend-mode:normal;color-interpolation:sRGB;color-interpolation-filters:linearRGB;solid-color:#000;solid-opacity:1;vector-effect:none;fill:#ffffea;fill-opacity:1;fill-rule:nonzero;stroke:none;stroke-width:10;stroke-linecap:round;stroke-linejoin:round;stroke-miterlimit:4;stroke-dasharray:none;stroke-dashoffset:0;stroke-opacity:1;color-rendering:auto;image-rendering:auto;shape-rendering:auto;text-rendering:auto;enable-background:accumulate;stop-color:#000;stop-opacity:1" transform="translate(0 860.362)"/></g></g><style id="style853" type="text/css">.st0{fill:#fff}</style></svg>
